rospo-newyear-dark/symbolic/apps/org.gnome.Lollypop-symbolic.svg

<svg height="16" width="16" xmlns="http://www.w3.org/2000/svg"><path d="m5.7949219.3125a8 8 0 0 0 -3.0742188 1.6894531.50005.50005 0 0 1  .1269531.2675781c.1270202.8718274.8339108 2.1068846 1.6152344 3.0703126a.50005.50005 0 0 1  .0390625.5722656c-.3811486.6317499-.5833775 1.3560589-.5859375 2.09375.00026.0847061.0022825.1693062.0078125.2539062a.50005.50005 0 0 1 -.7382812.4726563c-1.1146064-.6083983-2.25119327-1.5166814-2.94140628-2.6503907a8 8 0 0 0 -.24414062 1.9179688 8 8 0 0 0  .1640625 1.5742188.50005.50005 0 0 1  .29492188.0234374c.81810782.3256574 2.23690882.3331751 3.46093752.1386719a.50005.50005 0 0 1  .515625.2519531c.3332517.5990598.8792306 1.0231478 1.4550781 1.3867188-.2309442-.14433-.390625-.409514-.390625-.703125v-5.34375c.0002359-.4717993.3107785-.7720219.7539062-.8164062.153864-.0154112.3202134.0183836.4609376.0996093a.50005.50005 0 0 1  .0097656.0058594l4.3808596 2.671875c.522252.318145.522455 1.1038587 0 1.421875l-4.3808596 2.6718745c-.2600527.1586-.5912798.141309-.8261719 0 .1153852.072408.1681601.216484.2910156.277344a.50005.50005 0 0 1  .0371094.875c-1.0861105.662854-2.4333862 1.200443-3.7636719 1.228516a8 8 0 0 0 2.984375 1.810547.50005.50005 0 0 1  .1699219-.25c.6886646-.545766 1.4010043-1.7661 1.84375-2.919922a.50005.50005 0 0 1  .4707031-.320313c.019718.000143.0388758.000143.0585938 0a .50005.50005 0 0 1  .0039062 0c .806829-.00112 1.5934837-.24216 2.2636714-.691406a.50005.50005 0 0 1  .251954-.083984.50005.50005 0 0 1  .527343.488281c.03171 1.274894-.176628 2.717278-.820312 3.886719a8 8 0 0 0 3.064453-1.6875.50005.50005 0 0 1 -.126953-.265625c-.127279-.871815-.836786-2.106751-1.619141-3.070313a.50005.50005 0 0 1 -.041015-.570312c.376929-.6306604.577025-1.3512223.578125-2.0859378.0001-.0899626-.001913-.1797602-.007813-.2695312a.50005.50005 0 0 1  .498047-.5332031.50005.50005 0 0 1  .238281.0605469c1.119425.6088846 2.264594 1.5091506 2.957031 2.6503906a8 8 0 0 0  .242188-1.9121094 8 8 0 0 0 -.166016-1.578125.50005.50005 0 0 1 -.27539-.015625c-1.053766-.3755983-2.401826-.3206916-3.494141-.1425781a.50005.50005 0 0 1 -.515625-.25c-.4022-.7184186-1.013981-1.2989773-1.751953-1.6640625a.50005.50005 0 0 1 -.0390625-.8730469c1.0780925-.6614273 2.4170825-1.1982865 3.7441405-1.2402344.011807-.000375.023361.0002724.035156 0a8 8 0 0 0 -2.982421-1.81054685.50005.50005 0 0 1 -.169922.25c-.6911952.54774615-1.4066193 1.77448045-1.8496098 2.93164065a.50005.50005 0 0 1 -.4707031.3203125c-.022131-.0001785-.0442742-.0001785-.0664062 0a .50005.50005 0 0 1 -.0039063 0c-.8025884.0011581-1.5859824.2388159-2.2539062.6835937a.50005.50005 0 0 1 -.7773438-.4042969c-.0320152-1.2760356.1786521-2.7213908.8320313-3.8945312zm2.203125.1875c-.3944557.00209449-.7867477.05393349-1.1816407.11914062-.5010459.79340228-.7314967 1.85665108-.7890624 2.90429688.5453527-.2379326 1.0905395-.4758799 1.6875-.5117187.3484703-.862504.8319785-1.6682805 1.4042968-2.35937505-.3723646-.05849706-.7395158-.15044492-1.1171875-.15234375zm5.5351561 2.7363281c-.856714.0270805-1.762113.4496012-2.601562.8730469.44776.3403169.891364.6785508 1.205078 1.1484375.826925-.1215906 1.755665-.1156075 2.691406.0273437-.289946-.7217845-.593011-1.4423821-1.091797-2.0429687-.067898-.00148-.134865-.0080294-.203125-.0058594zm-11.3027342.2128907c-.4955141.6338852-.98021 1.281202-1.2011719 1.9101562.4328345.7961319 1.2026074 1.5046478 2.0488281 2.0703125.0712533-.5801527.2031499-1.1450406.4667969-1.6679687-.5541266-.7080875-.996841-1.4992509-1.3144531-2.3125zm4.2695312 2.203125v4.6953122l3.849609-2.347656zm6.417969 2.9121093c-.068835.5819566-.202466 1.1486901-.464844 1.6738279.553322.705989.995621 1.495213 1.314453 2.306641.469343-.599114.930074-1.207193 1.199219-1.921875-.433061-.7954041-1.201195-1.4963404-2.048828-2.0585939zm-11.7402346 2.1601559c.2844773.705677.5819078 1.407998 1.0664062 1.998047.9233081.023013 1.9413109-.303243 2.8652344-.771484-.4758935-.350967-.9371448-.714341-1.265625-1.208984-.8916264.12682-1.8011642.1135-2.6660156-.017579zm8.7949218 1.757813c-.5460766.239931-1.0930648.476734-1.6914062.513672-.3477042.859372-.8284823 1.662808-1.3984375 2.351562.3729943.058603.7407814.150556 1.1191406.152344.4001342-.001944.7969361-.055499 1.1914063-.121094.4928122-.790006.7216726-1.85046.7792968-2.896484z" fill="#d3dae3" opacity=".3"/><path d="m8 0c-.5056.00243-1.0097781.05181375-1.5175781.15234375-.7778 1.09876005-1.0538313 2.67586875-1.0195313 4.04296875.7498-.4993 1.63035-.7662781 2.53125-.7675781.0248-.0002.0494188-.0002.0742188 0 .4623-1.2076 1.1765593-2.48734128 2.0058596-3.14453128-.6757002-.18482999-1.373419-.28004312-2.074219-.28320312zm-5.6464844 2.3417969c-.9238.9238-1.6011956 2.029875-1.9160156 3.046875.564 1.2084 1.7895812 2.2499969 2.9882812 2.9042969-.0062-.0949-.0094656-.1900563-.0097656-.2851563.0021-.8296.2296032-1.6431156.6582032-2.3535156-.8152001-1.0052-1.5681032-2.2651-1.7207032-3.3125zm11.1640624.3945312c-1.199.0379-2.477047.5396156-3.498047 1.1660157a4.5785 4.5785 0 0 1 1.964844 1.8671874c1.137-.1853999 2.553188-.2577843 3.742187.1660157a8 8 0 0 0 -1.701171-3.1855469h-.001953c-.166001-.0144-.33586-.0190719-.50586-.0136719zm-7.2128905 2.2734375c-.1597266.0159985-.3046125.1683594-.3046875.3183594v5.34375c0 .252.2582437.409203.4648438.283203l4.3808592-2.6718749c.207-.126.207-.4403062 0-.5664062l-4.3808592-2.671875c-.0515-.029725-.1069141-.0404891-.1601563-.0351563zm6.2578125 2.6914063a4.5785 4.5785 0 0 1  .009766.3027343 4.5785 4.5785 0 0 1 -.648438 2.3417968c.816 1.005 1.571609 2.2645 1.72461 3.3125a8 8 0 0 0 1.910156-3.064453c-.566-1.213-1.794094-2.2387781-2.996094-2.8925781zm-12.2890625 2.3613281a8 8 0 0 0 1.7011719 3.1875 8 8 0 0 0  .0019531 0c1.3281.115 2.8252344-.431578 3.9902344-1.142578a4.5785 4.5785 0 0 1 -1.96875-1.876953c-1.2775.203-2.7423494.223031-3.7246094-.167969zm10.2636715 1.746094a4.5785 4.5785 0 0 1 -2.5429684.77539 4.5785 4.5785 0 0 1 -.0664062 0c-.462 1.204-1.1735 2.477813-2 3.132813a8 8 0 0 0 2.0722656.283203 8 8 0 0 0 1.5292969-.154297c.7667001-1.095 1.0418121-2.670109 1.0078121-4.037109z" fill="#d3dae3"/></svg>

<svg xmlns="http://www.w3.org/2000/svg" width="16" height="16" version="1.1">
 <path style="opacity:0.3;fill:#d3dae3" d="M 5.7949219 0.3125 A 8 8 0 0 0 2.7207031 2.0019531 A 0.50005 0.50005 0 0 1 2.8476562 2.2695312 C 2.9746764 3.1413586 3.681567 4.3764158 4.4628906 5.3398438 A 0.50005 0.50005 0 0 1 4.5019531 5.9121094 C 4.1208045 6.5438593 3.9185756 7.2681683 3.9160156 8.0058594 C 3.9162756 8.0905655 3.9182981 8.1751656 3.9238281 8.2597656 A 0.50005 0.50005 0 0 1 3.1855469 8.7324219 C 2.0709405 8.1240236 0.93435363 7.2157405 0.24414062 6.0820312 A 8 8 0 0 0 0 8 A 8 8 0 0 0 0.1640625 9.5742188 A 0.50005 0.50005 0 0 1 0.45898438 9.5976562 C 1.2770922 9.9233136 2.6958932 9.9308313 3.9199219 9.7363281 A 0.50005 0.50005 0 0 1 4.4355469 9.9882812 C 4.7687986 10.587341 5.3147775 11.011429 5.890625 11.375 C 5.6596808 11.23067 5.5 10.965486 5.5 10.671875 L 5.5 5.328125 C 5.5002359 4.8563257 5.8107785 4.5561031 6.2539062 4.5117188 C 6.4077702 4.4963076 6.5741196 4.5301024 6.7148438 4.6113281 A 0.50005 0.50005 0 0 1 6.7246094 4.6171875 L 11.105469 7.2890625 C 11.627721 7.6072075 11.627924 8.3929212 11.105469 8.7109375 L 6.7246094 11.382812 C 6.4645567 11.541412 6.1333296 11.524121 5.8984375 11.382812 C 6.0138227 11.45522 6.0665976 11.599296 6.1894531 11.660156 A 0.50005 0.50005 0 0 1 6.2265625 12.535156 C 5.140452 13.19801 3.7931763 13.735599 2.4628906 13.763672 A 8 8 0 0 0 5.4472656 15.574219 A 0.50005 0.50005 0 0 1 5.6171875 15.324219 C 6.3058521 14.778453 7.0181918 13.558119 7.4609375 12.404297 A 0.50005 0.50005 0 0 1 7.9316406 12.083984 C 7.9513586 12.084127 7.9705164 12.084127 7.9902344 12.083984 A 0.50005 0.50005 0 0 1 7.9941406 12.083984 C 8.8009696 12.082864 9.5876243 11.841824 10.257812 11.392578 A 0.50005 0.50005 0 0 1 10.509766 11.308594 A 0.50005 0.50005 0 0 1 11.037109 11.796875 C 11.068819 13.071769 10.860481 14.514153 10.216797 15.683594 A 8 8 0 0 0 13.28125 13.996094 A 0.50005 0.50005 0 0 1 13.154297 13.730469 C 13.027018 12.858654 12.317511 11.623718 11.535156 10.660156 A 0.50005 0.50005 0 0 1 11.494141 10.089844 C 11.87107 9.4591836 12.071166 8.7386217 12.072266 8.0039062 C 12.072366 7.9139436 12.070353 7.824146 12.064453 7.734375 A 0.50005 0.50005 0 0 1 12.5625 7.2011719 A 0.50005 0.50005 0 0 1 12.800781 7.2617188 C 13.920206 7.8706034 15.065375 8.7708694 15.757812 9.9121094 A 8 8 0 0 0 16 8 A 8 8 0 0 0 15.833984 6.421875 A 0.50005 0.50005 0 0 1 15.558594 6.40625 C 14.504828 6.0306517 13.156768 6.0855584 12.064453 6.2636719 A 0.50005 0.50005 0 0 1 11.548828 6.0136719 C 11.146628 5.2952533 10.534847 4.7146946 9.796875 4.3496094 A 0.50005 0.50005 0 0 1 9.7578125 3.4765625 C 10.835905 2.8151352 12.174895 2.278276 13.501953 2.2363281 C 13.51376 2.2359531 13.525314 2.2366005 13.537109 2.2363281 A 8 8 0 0 0 10.554688 0.42578125 A 0.50005 0.50005 0 0 1 10.384766 0.67578125 C 9.6935708 1.2235274 8.9781467 2.4502617 8.5351562 3.6074219 A 0.50005 0.50005 0 0 1 8.0644531 3.9277344 C 8.0423221 3.9275559 8.0201789 3.9275559 7.9980469 3.9277344 A 0.50005 0.50005 0 0 1 7.9941406 3.9277344 C 7.1915522 3.9288925 6.4081582 4.1665503 5.7402344 4.6113281 A 0.50005 0.50005 0 0 1 4.9628906 4.2070312 C 4.9308754 2.9309956 5.1415427 1.4856404 5.7949219 0.3125 z M 7.9980469 0.5 C 7.6035912 0.50209449 7.2112992 0.55393349 6.8164062 0.61914062 C 6.3153603 1.4125429 6.0849095 2.4757917 6.0273438 3.5234375 C 6.5726965 3.2855049 7.1178833 3.0475576 7.7148438 3.0117188 C 8.0633141 2.1492148 8.5468223 1.3434383 9.1191406 0.65234375 C 8.746776 0.59384669 8.3796248 0.50189883 8.0019531 0.5 L 7.9980469 0.5 z M 13.533203 3.2363281 C 12.676489 3.2634086 11.77109 3.6859293 10.931641 4.109375 C 11.379401 4.4496919 11.823005 4.7879258 12.136719 5.2578125 C 12.963644 5.1362219 13.892384 5.142205 14.828125 5.2851562 C 14.538179 4.5633717 14.235114 3.8427741 13.736328 3.2421875 C 13.66843 3.2407075 13.601463 3.2341581 13.533203 3.2363281 z M 2.2304688 3.4492188 C 1.7349547 4.083104 1.2502588 4.7304208 1.0292969 5.359375 C 1.4621314 6.1555069 2.2319043 6.8640228 3.078125 7.4296875 C 3.1493783 6.8495348 3.2812749 6.2846469 3.5449219 5.7617188 C 2.9907953 5.0536313 2.5480809 4.2624679 2.2304688 3.4492188 z M 6.5 5.6523438 L 6.5 10.347656 L 10.349609 8 L 6.5 5.6523438 z M 12.917969 8.5644531 C 12.849134 9.1464097 12.715503 9.7131432 12.453125 10.238281 C 13.006447 10.94427 13.448746 11.733494 13.767578 12.544922 C 14.236921 11.945808 14.697652 11.337729 14.966797 10.623047 C 14.533736 9.8276429 13.765602 9.1267066 12.917969 8.5644531 z M 1.1777344 10.724609 C 1.4622117 11.430286 1.7596422 12.132607 2.2441406 12.722656 C 3.1674487 12.745669 4.1854515 12.419413 5.109375 11.951172 C 4.6334815 11.600205 4.1722302 11.236831 3.84375 10.742188 C 2.9521236 10.869008 2.0425858 10.855688 1.1777344 10.724609 z M 9.9726562 12.482422 C 9.4265796 12.722353 8.8795914 12.959156 8.28125 12.996094 C 7.9335458 13.855466 7.4527677 14.658902 6.8828125 15.347656 C 7.2558068 15.406259 7.6235939 15.498212 8.0019531 15.5 C 8.4020873 15.498056 8.7988892 15.444501 9.1933594 15.378906 C 9.6861716 14.5889 9.915032 13.528446 9.9726562 12.482422 z"/>
 <path style="fill:#d3dae3" d="M 8 0 C 7.4944 0.00243 6.9902219 0.05181375 6.4824219 0.15234375 C 5.7046219 1.2511038 5.4285906 2.8282125 5.4628906 4.1953125 C 6.2126906 3.6960125 7.0932406 3.4290344 7.9941406 3.4277344 C 8.0189406 3.4275344 8.0435594 3.4275344 8.0683594 3.4277344 C 8.5306594 2.2201344 9.2449187 0.94039312 10.074219 0.28320312 C 9.3985188 0.098373125 8.7008 0.00316 8 0 z M 2.3535156 2.3417969 C 1.4297156 3.2655969 0.75232 4.3716719 0.4375 5.3886719 C 1.0015 6.5970719 2.2270812 7.6386688 3.4257812 8.2929688 C 3.4195812 8.1980688 3.4163156 8.1029125 3.4160156 8.0078125 C 3.4181156 7.1782125 3.6456188 6.3646969 4.0742188 5.6542969 C 3.2590187 4.6490969 2.5061156 3.3891969 2.3535156 2.3417969 z M 13.517578 2.7363281 C 12.318578 2.7742281 11.040531 3.2759437 10.019531 3.9023438 A 4.5785 4.5785 0 0 1 11.984375 5.7695312 C 13.121375 5.5841313 14.537563 5.5117469 15.726562 5.9355469 A 8 8 0 0 0 14.025391 2.75 L 14.023438 2.75 C 13.857437 2.7356 13.687578 2.7309281 13.517578 2.7363281 z M 6.3046875 5.0097656 C 6.1449609 5.0257641 6.000075 5.178125 6 5.328125 L 6 10.671875 C 6 10.923875 6.2582437 11.081078 6.4648438 10.955078 L 10.845703 8.2832031 C 11.052703 8.1572031 11.052703 7.8428969 10.845703 7.7167969 L 6.4648438 5.0449219 C 6.4133438 5.0151969 6.3579297 5.0044328 6.3046875 5.0097656 z M 12.5625 7.7011719 A 4.5785 4.5785 0 0 1 12.572266 8.0039062 A 4.5785 4.5785 0 0 1 11.923828 10.345703 C 12.739828 11.350703 13.495437 12.610203 13.648438 13.658203 A 8 8 0 0 0 15.558594 10.59375 C 14.992594 9.38075 13.7645 8.3549719 12.5625 7.7011719 z M 0.2734375 10.0625 A 8 8 0 0 0 1.9746094 13.25 A 8 8 0 0 0 1.9765625 13.25 C 3.3046625 13.365 4.8017969 12.818422 5.9667969 12.107422 A 4.5785 4.5785 0 0 1 3.9980469 10.230469 C 2.7205469 10.433469 1.2556975 10.4535 0.2734375 10.0625 z M 10.537109 11.808594 A 4.5785 4.5785 0 0 1 7.9941406 12.583984 A 4.5785 4.5785 0 0 1 7.9277344 12.583984 C 7.4657344 13.787984 6.7542344 15.061797 5.9277344 15.716797 A 8 8 0 0 0 8 16 A 8 8 0 0 0 9.5292969 15.845703 C 10.295997 14.750703 10.571109 13.175594 10.537109 11.808594 z"/>
</svg>
